X:1
T:Title
%%score { ( 1 3 4 ) | 2 }
L:1/8
Q:1/4=120
M:2/2
K:Ab
V:1 treble nm="Grand Piano"
V:3 treble 
V:4 treble 
V:2 bass 
V:1
 [Cc]4 [CB]2 [CA]2 | [DA]2 [DG]2 F2 E2 | F4 E4- | E2 [EA]2 [FB]2 d2 | c8- | c4 [Cc]4 | %6
w: Caryl~Florio * *||||||
 [CA]6 [CG]2 | [CF]4 [CF]4 | G8 | B4 A2 [Ae]2 | c6 B2 | A4 [EA]4 | B8 | d4 c4 | f4 [Fd]2 [FB]2 | %15
w: |||||||||
 [EG]8 | [Ee]4 [Ec]2 [EA]2 | [DF]4 [Fd]4 |[M:6/4] [=Ec]12 |[M:4/4] [=Ec]4 [Fc]2 [Gc]2 | A4 A2 B2 | %21
w: ||||||
 c6 B2 | [CA]8 |] %23
w: ||
V:2
 [A,,E,]4 [A,,E,]2 [A,,E,]2 | [B,,E,]2 [B,,E,]2 [D,G,B,]2 [D,G,B,]2 | [C,A,]4 [C,A,]4- | %3
 [C,A,]2 [C,C]2 [D,B,]2 [E,G,E]2 | [A,E]8- | [A,E]4 [A,,E,]4 | [A,,=E,]6 [A,,E,]2 | %7
 [A,,F,]4 [A,,F,]4 | [B,,F,]4 [C,=E,]4 | [F,C]4 [F,C]2 [F,C]2 | [G,DE]6 [G,DE]2 | [A,CE]4 [C,A,]4 | %12
 [D,A,]4 [E,G,]4 | [A,E]4 [A,E]4 | [D,A,D]4 [D,A,]2 [D,D]2 | [E,B,]8 | [C,A,]4 [C,A,]2 [C,A,]2 | %17
 [D,A,]4 [B,,B,]4 |[M:6/4] [C,G,]12 |[M:4/4] [C,C]4 [=D,C]2 [=E,C]2 | [F,CF]4 [=E,A,D]2 [E,A,D]2 | %21
 [E,G,E]6 [E,G,D]2 | [A,,A,]8 |] %23
V:3
 x8 | x8 | x8 | x8 | x8 | x8 | x8 | x8 | D4 z2 B2 | x8 | x8 | x8 | F4 z2 d2 | x8 | x8 | x8 | x8 | %17
 x8 |[M:6/4] x12 |[M:4/4] x8 | x8 | x8 | x8 |] %23
V:4
 x8 | x8 | x8 | x8 | x8 | x8 | x8 | x8 | z4 C4 | x8 | x8 | x8 | z4 E4 | x8 | x8 | x8 | x8 | x8 | %18
[M:6/4] x12 |[M:4/4] x8 | x8 | x8 | x8 |] %23

